Newaita-dark/.places-default/32/folder-drag-accept.svg

<?xml version="1.0" encoding="UTF-8"?>
<svg xmlns="http://www.w3.org/2000/svg" xmlns:xlink="http://www.w3.org/1999/xlink" width="32pt" height="32pt" viewBox="0 0 32 32" version="1.1">
<defs>
<linearGradient id="linear0" gradientUnits="userSpaceOnUse" x1="254" y1="233.5" x2="254" y2="254.666672" gradientTransform="matrix(0.062506,0,0,0.062506,-0.00000381506,14.100307)">
<stop offset="0" style="stop-color:rgb(0%,0%,0%);stop-opacity:0.27451;"/>
<stop offset="1" style="stop-color:rgb(0%,0%,0%);stop-opacity:0;"/>
</linearGradient>
<radialGradient id="radial0" gradientUnits="userSpaceOnUse" cx="450.908936" cy="189.579361" fx="450.908936" fy="189.579361" r="21.166656" gradientTransform="matrix(0.00000017417,-0.0781325,-0.140638,-0.000000101539,54.115213,64.256855)">
<stop offset="0" style="stop-color:rgb(0%,0%,0%);stop-opacity:0.313725;"/>
<stop offset="0.222222" style="stop-color:rgb(0%,0%,0%);stop-opacity:0.27451;"/>
<stop offset="1" style="stop-color:rgb(0%,0%,0%);stop-opacity:0;"/>
</radialGradient>
<radialGradient id="radial1" gradientUnits="userSpaceOnUse" cx="450.908936" cy="189.579361" fx="450.908936" fy="189.579361" r="21.166656" gradientTransform="matrix(-0.00000017417,0.0781325,0.140638,0.000000101539,-22.362178,-6.865957)">
<stop offset="0" style="stop-color:rgb(0%,0%,0%);stop-opacity:0.313725;"/>
<stop offset="0.222222" style="stop-color:rgb(0%,0%,0%);stop-opacity:0.27451;"/>
<stop offset="1" style="stop-color:rgb(0%,0%,0%);stop-opacity:0;"/>
</radialGradient>
<radialGradient id="radial2" gradientUnits="userSpaceOnUse" cx="450.908936" cy="189.579361" fx="450.908936" fy="189.579361" r="21.166656" gradientTransform="matrix(-0.00000017417,-0.0781325,0.140638,-0.000000101539,-22.362178,64.256855)">
<stop offset="0" style="stop-color:rgb(0%,0%,0%);stop-opacity:0.313725;"/>
<stop offset="0.222222" style="stop-color:rgb(0%,0%,0%);stop-opacity:0.27451;"/>
<stop offset="1" style="stop-color:rgb(0%,0%,0%);stop-opacity:0;"/>
</radialGradient>
<radialGradient id="radial3" gradientUnits="userSpaceOnUse" cx="450.908936" cy="189.579361" fx="450.908936" fy="189.579361" r="21.166656" gradientTransform="matrix(0.00000017417,0.0781325,-0.140638,0.000000101539,54.115211,-6.865957)">
<stop offset="0" style="stop-color:rgb(0%,0%,0%);stop-opacity:0.313725;"/>
<stop offset="0.222222" style="stop-color:rgb(0%,0%,0%);stop-opacity:0.27451;"/>
<stop offset="1" style="stop-color:rgb(0%,0%,0%);stop-opacity:0;"/>
</radialGradient>
<linearGradient id="linear1" gradientUnits="userSpaceOnUse" x1="317.5" y1="233.499985" x2="317.5" y2="-147.500015" gradientTransform="matrix(0.062506,0,0,0.062506,-0.00000018825,14.100305)">
<stop offset="0" style="stop-color:rgb(55.294118%,43.137255%,38.823529%);stop-opacity:1;"/>
<stop offset="1" style="stop-color:rgb(63.137255%,53.333333%,49.803922%);stop-opacity:1;"/>
</linearGradient>
<linearGradient id="linear2" gradientUnits="userSpaceOnUse" x1="254" y1="-115.750008" x2="254" y2="233.5" gradientTransform="matrix(0.062506,0,0,0.062506,-0.00000018825,14.100305)">
<stop offset="0" style="stop-color:rgb(84.313725%,80%,78.431373%);stop-opacity:1;"/>
<stop offset="1" style="stop-color:rgb(73.72549%,66.666667%,64.313725%);stop-opacity:1;"/>
</linearGradient>
</defs>
<g id="surface1">
<path style=" stroke:none;fill-rule:nonzero;fill:url(#linear0);" d="M 3.96875 28.695312 L 27.785156 28.695312 L 27.785156 30.019531 L 3.96875 30.019531 Z M 3.96875 28.695312 "/>
<path style=" stroke:none;fill-rule:nonzero;fill:url(#radial0);" d="M 27.785156 28.695312 L 30.429688 28.695312 L 30.429688 27.371094 L 27.785156 27.371094 Z M 27.785156 28.695312 "/>
<path style=" stroke:none;fill-rule:nonzero;fill:url(#radial1);" d="M 3.96875 28.695312 L 1.324219 28.695312 L 1.324219 30.019531 L 3.96875 30.019531 Z M 3.96875 28.695312 "/>
<path style=" stroke:none;fill-rule:nonzero;fill:url(#radial2);" d="M 3.96875 28.695312 L 1.324219 28.695312 L 1.324219 27.371094 L 3.96875 27.371094 Z M 3.96875 28.695312 "/>
<path style=" stroke:none;fill-rule:nonzero;fill:url(#radial3);" d="M 27.785156 28.695312 L 30.429688 28.695312 L 30.429688 30.019531 L 27.785156 30.019531 Z M 27.785156 28.695312 "/>
<path style=" stroke:none;fill-rule:nonzero;fill:url(#linear1);" d="M 7.277344 4.878906 C 6.542969 4.878906 5.953125 5.472656 5.953125 6.203125 L 5.953125 7.527344 L 2.644531 7.527344 C 1.914062 7.527344 1.324219 8.117188 1.324219 8.851562 L 1.324219 19.433594 C 1.324219 20.167969 1.914062 20.757812 2.644531 20.757812 L 29.105469 20.757812 C 29.839844 20.757812 30.429688 20.167969 30.429688 19.433594 L 30.429688 8.851562 C 30.429688 8.511719 30.304688 8.207031 30.097656 7.972656 L 30.097656 6.203125 C 30.097656 5.472656 29.507812 4.878906 28.777344 4.878906 Z M 7.277344 4.878906 "/>
<path style=" stroke:none;fill-rule:nonzero;fill:rgb(90.196079%,90.196079%,90.196079%);fill-opacity:0.588235;" d="M 7.277344 4.878906 C 6.542969 4.878906 5.953125 5.472656 5.953125 6.203125 L 5.953125 6.367188 C 5.953125 5.636719 6.542969 5.046875 7.277344 5.046875 L 28.777344 5.046875 C 29.507812 5.046875 30.097656 5.636719 30.097656 6.367188 L 30.097656 6.203125 C 30.097656 5.472656 29.507812 4.878906 28.777344 4.878906 Z M 7.277344 4.878906 "/>
<path style=" stroke:none;fill-rule:nonzero;fill:rgb(12.941177%,12.941177%,12.941177%);fill-opacity:1;" d="M 7.277344 4.785156 C 6.492188 4.785156 5.859375 5.421875 5.859375 6.203125 L 5.859375 7.433594 L 2.644531 7.433594 C 1.863281 7.433594 1.230469 8.066406 1.230469 8.851562 L 1.230469 19.433594 C 1.230469 20.21875 1.863281 20.851562 2.644531 20.851562 L 29.105469 20.851562 C 29.890625 20.851562 30.523438 20.21875 30.523438 19.433594 L 30.523438 8.851562 C 30.523438 8.503906 30.398438 8.1875 30.191406 7.941406 L 30.191406 6.203125 C 30.191406 5.421875 29.558594 4.785156 28.777344 4.785156 Z M 7.277344 4.972656 L 28.777344 4.972656 C 29.457031 4.972656 30.003906 5.519531 30.003906 6.203125 L 30.003906 8.007812 L 30.027344 8.035156 C 30.21875 8.253906 30.335938 8.535156 30.335938 8.851562 L 30.335938 19.433594 C 30.335938 20.117188 29.789062 20.664062 29.105469 20.664062 L 2.644531 20.664062 C 1.964844 20.664062 1.417969 20.117188 1.417969 19.433594 L 1.417969 8.851562 C 1.417969 8.167969 1.964844 7.621094 2.644531 7.621094 L 6.046875 7.621094 L 6.046875 6.203125 C 6.046875 5.519531 6.59375 4.972656 7.277344 4.972656 Z M 7.277344 4.972656 "/>
<path style=" stroke:none;fill-rule:nonzero;fill:url(#linear2);" d="M 2.644531 13.480469 C 1.914062 13.480469 1.324219 14.070312 1.324219 14.804688 L 1.324219 27.371094 C 1.324219 28.105469 1.914062 28.695312 2.644531 28.695312 L 29.105469 28.695312 C 29.839844 28.695312 30.429688 28.105469 30.429688 27.371094 L 30.429688 14.804688 L 12.570312 14.804688 C 11.835938 14.804688 11.246094 14.214844 11.246094 13.480469 Z M 2.644531 13.480469 "/>
<path style=" stroke:none;fill-rule:nonzero;fill:rgb(0%,0%,0%);fill-opacity:0.196078;" d="M 2.644531 28.695312 C 1.914062 28.695312 1.324219 28.105469 1.324219 27.371094 L 1.324219 27.207031 C 1.324219 27.941406 1.914062 28.53125 2.644531 28.53125 L 29.105469 28.53125 C 29.839844 28.53125 30.429688 27.941406 30.429688 27.207031 L 30.429688 27.371094 C 30.429688 28.105469 29.839844 28.695312 29.105469 28.695312 Z M 2.644531 28.695312 "/>
<path style=" stroke:none;fill-rule:nonzero;fill:rgb(90.196079%,90.196079%,90.196079%);fill-opacity:0.937255;" d="M 2.644531 13.480469 C 1.914062 13.480469 1.324219 14.070312 1.324219 14.804688 L 1.324219 14.96875 C 1.324219 14.234375 1.914062 13.644531 2.644531 13.644531 L 11.246094 13.644531 L 11.246094 13.480469 Z M 2.644531 13.480469 "/>
<path style=" stroke:none;fill-rule:nonzero;fill:rgb(90.196079%,90.196079%,90.196079%);fill-opacity:0.937255;" d="M 12.570312 14.96875 C 11.835938 14.96875 11.246094 14.378906 11.246094 13.644531 L 11.246094 13.480469 C 11.246094 14.214844 11.835938 14.804688 12.570312 14.804688 L 30.511719 14.804688 L 30.511719 14.96875 Z M 12.570312 14.96875 "/>
<path style=" stroke:none;fill-rule:nonzero;fill:rgb(12.941177%,12.941177%,12.941177%);fill-opacity:1;" d="M 2.644531 13.386719 C 1.863281 13.386719 1.230469 14.019531 1.230469 14.804688 L 1.230469 27.371094 C 1.230469 28.15625 1.863281 28.789062 2.644531 28.789062 L 29.105469 28.789062 C 29.890625 28.789062 30.523438 28.15625 30.523438 27.371094 L 30.523438 14.710938 L 12.570312 14.710938 C 11.886719 14.710938 11.339844 14.164062 11.339844 13.480469 L 11.339844 13.386719 Z M 2.644531 13.574219 L 11.15625 13.574219 C 11.207031 14.3125 11.816406 14.898438 12.570312 14.898438 L 30.335938 14.898438 L 30.335938 27.371094 C 30.335938 28.054688 29.789062 28.601562 29.105469 28.601562 L 2.644531 28.601562 C 1.964844 28.601562 1.417969 28.054688 1.417969 27.371094 L 1.417969 14.804688 C 1.417969 14.121094 1.964844 13.574219 2.644531 13.574219 Z M 2.644531 13.574219 "/>
</g>
</svg>

<svg xmlns="http://www.w3.org/2000/svg" width="32pt" height="32pt" viewBox="0 0 32 32"><defs><linearGradient id="a" gradientUnits="userSpaceOnUse" x1="254" y1="233.5" x2="254" y2="254.667" gradientTransform="matrix(.0625 0 0 .0625 0 14.1)"><stop offset="0" stop-opacity=".275"/><stop offset="1" stop-opacity="0"/></linearGradient><radialGradient id="b" gradientUnits="userSpaceOnUse" cx="450.909" cy="189.579" fx="450.909" fy="189.579" r="21.167" gradientTransform="matrix(0 -.07813 -.14064 0 54.115 64.257)"><stop offset="0" stop-opacity=".314"/><stop offset=".222" stop-opacity=".275"/><stop offset="1" stop-opacity="0"/></radialGradient><radialGradient id="c" gradientUnits="userSpaceOnUse" cx="450.909" cy="189.579" fx="450.909" fy="189.579" r="21.167" gradientTransform="matrix(0 .07813 .14064 0 -22.362 -6.866)"><stop offset="0" stop-opacity=".314"/><stop offset=".222" stop-opacity=".275"/><stop offset="1" stop-opacity="0"/></radialGradient><radialGradient id="d" gradientUnits="userSpaceOnUse" cx="450.909" cy="189.579" fx="450.909" fy="189.579" r="21.167" gradientTransform="matrix(0 -.07813 .14064 0 -22.362 64.257)"><stop offset="0" stop-opacity=".314"/><stop offset=".222" stop-opacity=".275"/><stop offset="1" stop-opacity="0"/></radialGradient><radialGradient id="e" gradientUnits="userSpaceOnUse" cx="450.909" cy="189.579" fx="450.909" fy="189.579" r="21.167" gradientTransform="matrix(0 .07813 -.14064 0 54.115 -6.866)"><stop offset="0" stop-opacity=".314"/><stop offset=".222" stop-opacity=".275"/><stop offset="1" stop-opacity="0"/></radialGradient><linearGradient id="f" gradientUnits="userSpaceOnUse" x1="317.5" y1="233.5" x2="317.5" y2="-147.5" gradientTransform="matrix(.0625 0 0 .0625 0 14.1)"><stop offset="0" stop-color="#8d6e63"/><stop offset="1" stop-color="#a1887f"/></linearGradient><linearGradient id="g" gradientUnits="userSpaceOnUse" x1="254" y1="-115.75" x2="254" y2="233.5" gradientTransform="matrix(.0625 0 0 .0625 0 14.1)"><stop offset="0" stop-color="#d7ccc8"/><stop offset="1" stop-color="#bcaaa4"/></linearGradient></defs><path d="M3.969 28.695h23.816v1.325H3.97zm0 0" fill="url(#a)"/><path d="M27.785 28.695h2.645v-1.324h-2.645zm0 0" fill="url(#b)"/><path d="M3.969 28.695H1.324v1.325H3.97zm0 0" fill="url(#c)"/><path d="M3.969 28.695H1.324v-1.324H3.97zm0 0" fill="url(#d)"/><path d="M27.785 28.695h2.645v1.325h-2.645zm0 0" fill="url(#e)"/><path d="M7.277 4.879c-.734 0-1.324.594-1.324 1.324v1.324H2.645c-.73 0-1.32.59-1.32 1.325v10.582c0 .734.59 1.324 1.32 1.324h26.46a1.32 1.32 0 0 0 1.325-1.324V8.852c0-.34-.125-.645-.332-.88V6.204c0-.73-.59-1.324-1.32-1.324zm0 0" fill="url(#f)"/><path d="M7.277 4.879c-.734 0-1.324.594-1.324 1.324v.164c0-.73.59-1.32 1.324-1.32h21.5c.73 0 1.32.59 1.32 1.32v-.164c0-.73-.59-1.324-1.32-1.324zm0 0" fill="#e6e6e6" fill-opacity=".588"/><path d="M7.277 4.785c-.785 0-1.418.637-1.418 1.418v1.23H2.645c-.782 0-1.415.633-1.415 1.419v10.582c0 .785.633 1.418 1.415 1.418h26.46c.786 0 1.418-.633 1.418-1.418V8.852c0-.348-.125-.665-.332-.91V6.202c0-.781-.632-1.418-1.414-1.418zm0 .188h21.5c.68 0 1.227.547 1.227 1.23v1.805l.023.027c.192.219.309.5.309.817v10.582c0 .683-.547 1.23-1.23 1.23H2.644c-.68 0-1.227-.547-1.227-1.23V8.852c0-.684.547-1.23 1.227-1.23h3.402V6.202c0-.683.547-1.23 1.23-1.23zm0 0" fill="#212121"/><path d="M2.645 13.48c-.73 0-1.32.59-1.32 1.325V27.37c0 .734.59 1.324 1.32 1.324h26.46a1.32 1.32 0 0 0 1.325-1.324V14.805H12.57a1.32 1.32 0 0 1-1.324-1.325zm0 0" fill="url(#g)"/><path d="M2.645 28.695c-.73 0-1.32-.59-1.32-1.324v-.164c0 .734.59 1.324 1.32 1.324h26.46a1.32 1.32 0 0 0 1.325-1.324v.164a1.32 1.32 0 0 1-1.325 1.324zm0 0" fill-opacity=".196"/><path d="M2.645 13.48c-.73 0-1.32.59-1.32 1.325v.164c0-.735.59-1.324 1.32-1.324h8.601v-.165zm0 0" fill="#e6e6e6" fill-opacity=".937"/><path d="M12.57 14.969a1.32 1.32 0 0 1-1.324-1.324v-.165c0 .735.59 1.325 1.324 1.325h17.942v.164zm0 0" fill="#e6e6e6" fill-opacity=".937"/><path d="M2.645 13.387c-.782 0-1.415.633-1.415 1.418V27.37c0 .785.633 1.418 1.415 1.418h26.46c.786 0 1.418-.633 1.418-1.418v-12.66H12.57c-.683 0-1.23-.547-1.23-1.23v-.094zm0 .187h8.511c.051.739.66 1.324 1.414 1.324h17.766v12.473c0 .684-.547 1.23-1.23 1.23H2.644c-.68 0-1.227-.546-1.227-1.23V14.805c0-.684.547-1.23 1.227-1.23zm0 0" fill="#212121"/></svg>
